modules/hawcons-stroke/icons/icon-63-compass.svg

<?xml version="1.0" encoding="UTF-8" standalone="no"?>
<svg width="32px" height="32px" viewBox="0 0 32 32" version="1.1" xmlns="http://www.w3.org/2000/svg" xmlns:xlink="http://www.w3.org/1999/xlink" xmlns:sketch="http://www.bohemiancoding.com/sketch/ns">
    <!-- Generator: Sketch 3.0.3 (7891) - http://www.bohemiancoding.com/sketch -->
    <title>icon 63 compass</title>
    <desc>Created with Sketch.</desc>
    <defs></defs>
    <g id="Page-1" stroke="none" stroke-width="1" fill="none" fill-rule="evenodd" sketch:type="MSPage">
        <g id="icon-63-compass" sketch:type="MSArtboardGroup" fill="#929292">
            <path d="M16.5,29 C23.4035597,29 29,23.4035597 29,16.5 C29,9.59644029 23.4035597,4 16.5,4 C9.59644029,4 4,9.59644029 4,16.5 C4,23.4035597 9.59644029,29 16.5,29 L16.5,29 Z M16.5,28 C22.8512749,28 28,22.8512749 28,16.5 C28,10.1487251 22.8512749,5 16.5,5 C10.1487251,5 5,10.1487251 5,16.5 C5,22.8512749 10.1487251,28 16.5,28 L16.5,28 Z M18.267767,18.267767 C16.5000001,20.035534 9.78248558,23.2175144 9.78248558,23.2175144 C9.78248558,23.2175144 12.964466,16.5 14.732233,14.732233 C16.5,12.9644661 23.2175144,9.78248558 23.2175144,9.78248558 C23.2175144,9.78248558 20.0355338,16.4999999 18.267767,18.267767 L18.267767,18.267767 Z M15.4393398,17.5606602 C16.0251263,18.1464466 16.9748737,18.1464466 17.5606602,17.5606602 C18.1464466,16.9748737 18.1464466,16.0251263 17.5606602,15.4393398 C16.9748737,14.8535534 16.0251263,14.8535534 15.4393398,15.4393398 C14.8535534,16.0251263 14.8535534,16.9748737 15.4393398,17.5606602 L15.4393398,17.5606602 Z M16.5,6 C16.2238576,6 16,6.21505737 16,6.49047852 L16,9.50952148 C16,9.78040529 16.2319336,10 16.5,10 C16.7761424,10 17,9.78494263 17,9.50952148 L17,6.49047852 C17,6.21959471 16.7680664,6 16.5,6 L16.5,6 Z M27.043335,16.543335 C27.043335,16.2671926 26.8282776,16.043335 26.5528564,16.043335 L23.5338135,16.043335 C23.2629297,16.043335 23.043335,16.2752686 23.043335,16.543335 C23.043335,16.8194773 23.2583923,17.043335 23.5338135,17.043335 L26.5528564,17.043335 C26.8237402,17.043335 27.043335,16.8114014 27.043335,16.543335 L27.043335,16.543335 Z M16.5,27.0866699 C16.7761424,27.0866699 17,26.8716125 17,26.5961914 L17,23.5771484 C17,23.3062646 16.7680664,23.0866699 16.5,23.0866699 C16.2238576,23.0866699 16,23.3017273 16,23.5771484 L16,26.5961914 C16,26.8670752 16.2319336,27.0866699 16.5,27.0866699 L16.5,27.0866699 Z M5.95666504,16.543335 C5.95666504,16.8194773 6.17172241,17.043335 6.44714355,17.043335 L9.46618652,17.043335 C9.73707033,17.043335 9.95666504,16.8114014 9.95666504,16.543335 C9.95666504,16.2671926 9.74160767,16.043335 9.46618652,16.043335 L6.44714355,16.043335 C6.17625975,16.043335 5.95666504,16.2752686 5.95666504,16.543335 L5.95666504,16.543335 Z" id="compass" sketch:type="MSShapeGroup"></path>
        </g>
    </g>
</svg>

<svg width="32" height="32" xmlns="http://www.w3.org/2000/svg"><path d="M16.5 29C23.404 29 29 23.404 29 16.5S23.404 4 16.5 4 4 9.596 4 16.5 9.596 29 16.5 29zm0-1C22.851 28 28 22.851 28 16.5S22.851 5 16.5 5 5 10.149 5 16.5 10.149 28 16.5 28zm1.768-9.732c-1.768 1.768-8.486 4.95-8.486 4.95s3.182-6.718 4.95-8.486c1.768-1.768 8.486-4.95 8.486-4.95s-3.182 6.718-4.95 8.486zm-2.829-.707a1.5 1.5 0 1 0 2.122-2.122 1.5 1.5 0 0 0-2.122 2.122zM16.5 6c-.276 0-.5.215-.5.49v3.02a.5.5 0 0 0 .5.49c.276 0 .5-.215.5-.49V6.49a.5.5 0 0 0-.5-.49zm10.543 10.543c0-.276-.215-.5-.49-.5h-3.02a.5.5 0 0 0-.49.5c0 .276.215.5.49.5h3.02a.5.5 0 0 0 .49-.5zM16.5 27.087c.276 0 .5-.215.5-.49v-3.02a.5.5 0 0 0-.5-.49c-.276 0-.5.215-.5.49v3.02a.5.5 0 0 0 .5.49zM5.957 16.543c0 .276.215.5.49.5h3.02a.5.5 0 0 0 .49-.5c0-.276-.215-.5-.49-.5h-3.02a.5.5 0 0 0-.49.5z" fill="#929292" fill-rule="evenodd"/></svg>
